!!!Genre:	Sher
!!!Mode:	Minor
!!!Listening/dance:	dance
!!!One_Mode:	yes
**kern
*I"P1
*clefG2
*k[b-e-]
*g:
*M2/4
*>A
=1
4dd
8ggL
16ffL
16ee-JJ
=2
4.dd
16ccLL
16b-JJ
=3
8.ccL
16b-Jk
16ddLL
16cc
16b-
16aJJ
*>A1
=4
8gL
8b-
8dd
8ggJ
*>A2
=5:|!
4.g
*>B
8dd
=6!|:
!LO:TX:a:i:t=Bb-major
(16ddLL
16gg)
(16gg
16bb-JJ)
(16bb-LL
16aa)
(16aa
16ggJJ)
=7
(4.gg
8ff)
=8
16ffLL
16gg
16aa-X
16ggJJ
16aa-LL
16gg
16ff
16ee-JJ
=9
4.dd
8cc
=10
(16ccLL
16ff)
(16ff
16aaJJ)
(16aaLL
16gg)
(16gg
16ffJJ)
=11
4.ff
8cc
=12
(16ccLL
16dd)
((8qff/
16ee-)
16ddJJ)
((8qff/
16ee-LL)
16dd
16cc
16b-JJ)
*>B1
=13
(16ccLL
16ddJJ)
4b-
(16aLL
16gJJ)
*>B2
=14:|!
(16ccLL
16ddJJ)
4b-
*>C
8g
=15!|:
!LO:TX:a:i:t=G-minor
8.ccL
16b-Jk
16ddLL
16cc
16b-
16aJJ
=16
8gL
8b-
8dd
8ggJ
=17
8.ccL
16b-Jk
16ddLL
16cc
16b-
16aJJ
=18
4g
4gg
=19
(8.ccL
16b-Jk)
16ddLL
16cc
16b-
16aJJ
=20
8gL
8b-
8dd
8ggJ
=21
8.ccL
16b-Jk
16ddLL
16cc
16b-
16aJJ
=22
2g
=:|!
*-
